public/images/file-maker/feature6.svg

<svg width="64" height="64" viewBox="0 0 64 64" fill="none" xmlns="http://www.w3.org/2000/svg">
<path d="M62.9434 20.6928H1.0566C0.472877 20.6928 0 20.2199 0 19.6362C0 19.0531 0.472877 18.5796 1.0566 18.5796H62.9434C63.5271 18.5796 64 19.0531 64 19.6362C64 20.2199 63.5271 20.6928 62.9434 20.6928Z" fill="#7F8284"/>
<path d="M18.0527 15.6368C16.2096 15.6368 14.709 14.1362 14.709 12.293C14.709 10.4493 16.2096 8.94929 18.0527 8.94929C19.8965 8.94929 21.3965 10.4493 21.3965 12.293C21.3965 14.1362 19.8965 15.6368 18.0527 15.6368ZM18.0527 11.0625C17.3747 11.0625 16.8222 11.6144 16.8222 12.293C16.8222 12.9717 17.3747 13.5236 18.0527 13.5236C18.7314 13.5236 19.2833 12.9717 19.2833 12.293C19.2833 11.6144 18.7314 11.0625 18.0527 11.0625Z" fill="#FF6B00"/>
<path d="M7.7793 15.6044C5.93555 15.6044 4.43555 14.1044 4.43555 12.2606C4.43555 10.4169 5.93555 8.91686 7.7793 8.91686C9.62305 8.91686 11.123 10.4169 11.123 12.2606C11.123 14.1044 9.62305 15.6044 7.7793 15.6044ZM7.7793 11.0301C7.10123 11.0301 6.54875 11.5825 6.54875 12.2606C6.54875 12.9393 7.10123 13.4912 7.7793 13.4912C8.45795 13.4912 9.00984 12.9393 9.00984 12.2606C9.00984 11.5825 8.45795 11.0301 7.7793 11.0301Z" fill="#FF6B00"/>
<path d="M56.9057 60.2394H7.09434C3.18278 60.2394 0 57.0572 0 53.145V10.8679C0 6.95634 3.18278 3.77356 7.09434 3.77356H56.9057C60.8172 3.77356 64 6.95634 64 10.8679V53.145C64 57.0572 60.8172 60.2394 56.9057 60.2394ZM7.09434 5.88677C4.34788 5.88677 2.11321 8.12144 2.11321 10.8679V53.145C2.11321 55.8915 4.34788 58.1262 7.09434 58.1262H56.9057C59.6521 58.1262 61.8868 55.8915 61.8868 53.145V10.8679C61.8868 8.12144 59.6521 5.88677 56.9057 5.88677H7.09434Z" fill="#7F8284"/>
<path d="M28.3266 15.6686C26.4834 15.6686 24.9834 14.1686 24.9834 12.3249C24.9834 10.4817 26.4834 8.98172 28.3266 8.98172C30.1703 8.98172 31.6703 10.4817 31.6703 12.3249C31.6703 14.1686 30.1703 15.6686 28.3266 15.6686ZM28.3266 11.0943C27.6485 11.0943 27.0966 11.6462 27.0966 12.3249C27.0966 13.0035 27.6485 13.5554 28.3266 13.5554C29.0052 13.5554 29.5571 13.0035 29.5571 12.3249C29.5571 11.6462 29.0052 11.0943 28.3266 11.0943Z" fill="#FF6B00"/>
<path fill-rule="evenodd" clip-rule="evenodd" d="M21.4361 26.6353C21.7049 26.0972 22.3432 25.8578 22.8993 26.0864L39.5474 32.9311C40.0815 33.1507 40.3696 33.733 40.2202 34.2911L38.1739 41.9355L45.2944 44.9117C45.6999 45.0813 45.9732 45.4676 45.9981 45.9067C46.0231 46.3458 45.7954 46.7606 45.4116 46.975L34.8908 52.8542C34.5446 53.0476 34.1232 53.0487 33.7761 52.8569L19.653 45.0546C19.3914 44.9101 19.1964 44.6693 19.1094 44.3833L15.0498 31.0315C14.9185 30.5997 15.052 30.131 15.391 29.8334C15.7301 29.5357 16.2118 29.4643 16.6225 29.6508L22.3107 32.2331C22.3874 31.9789 22.5511 31.7554 22.7786 31.6055C23.1012 31.393 23.5091 31.3571 23.8638 31.5099L28.8384 33.6528C29.2596 33.8342 29.5326 34.2491 29.5326 34.7081V35.2926L32.0688 36.4677C32.4043 36.6232 32.6445 36.9308 32.7141 37.2942L34.5171 46.7154L37.7408 34.6726L23.013 28.6174L22.3418 29.9608L20.2879 28.9332L21.4361 26.6353ZM32.7429 49.6614L30.5695 38.3053L27.902 37.0694C27.4961 36.8813 27.2363 36.4744 27.2363 36.0268V35.4644L24.5183 34.2935C24.445 34.5648 24.2737 34.8036 24.0318 34.9596C23.7038 35.1711 23.2909 35.2014 22.9355 35.0401L17.9855 32.7928L21.1707 43.2683L32.7429 49.6614ZM36.1429 49.5226L42.2299 46.1211L37.5743 44.1752L36.1429 49.5226Z" fill="#FF6B00"/>
</svg>

<svg xmlns="http://www.w3.org/2000/svg" width="64" height="64" fill="none" xmlns:v="https://vecta.io/nano"><path d="M62.943 20.693H1.057C.473 20.693 0 20.22 0 19.636s.473-1.057 1.057-1.057h61.887c.584 0 1.057.474 1.057 1.057s-.473 1.057-1.057 1.057z" fill="#7f8284"/><path d="M18.053 15.637a3.35 3.35 0 0 1-3.344-3.344 3.35 3.35 0 0 1 3.344-3.344 3.35 3.35 0 0 1 3.344 3.344 3.35 3.35 0 0 1-3.344 3.344zm0-4.574c-.678 0-1.231.552-1.231 1.23s.553 1.231 1.231 1.231a1.231 1.231 0 1 0 0-2.461zM7.779 15.604a3.35 3.35 0 0 1-3.344-3.344 3.35 3.35 0 0 1 3.344-3.344 3.35 3.35 0 0 1 3.344 3.344 3.35 3.35 0 0 1-3.344 3.344zm0-4.574c-.678 0-1.231.552-1.231 1.231s.552 1.231 1.231 1.231a1.23 1.23 0 0 0 1.231-1.231c0-.678-.552-1.231-1.231-1.231z" fill="#ff6b00"/><path d="M56.906 60.239H7.094C3.183 60.239 0 57.057 0 53.145V10.868c0-3.912 3.183-7.094 7.094-7.094h49.811c3.911 0 7.094 3.183 7.094 7.094v42.277c0 3.912-3.183 7.094-7.094 7.094zM7.094 5.887a4.99 4.99 0 0 0-4.981 4.981v42.277a4.99 4.99 0 0 0 4.981 4.981h49.811a4.99 4.99 0 0 0 4.981-4.981V10.868a4.99 4.99 0 0 0-4.981-4.981H7.094z" fill="#7f8284"/><g fill="#ff6b00"><path d="M28.327 15.669a3.35 3.35 0 0 1-3.343-3.344 3.35 3.35 0 0 1 3.343-3.343 3.35 3.35 0 0 1 3.344 3.343 3.35 3.35 0 0 1-3.344 3.344zm0-4.574a1.23 1.23 0 1 0 0 2.461 1.23 1.23 0 1 0 0-2.461z"/><path fill-rule="evenodd" d="M21.436 26.635a1.15 1.15 0 0 1 1.463-.549l16.648 6.845a1.15 1.15 0 0 1 .673 1.36l-2.046 7.644 7.121 2.976a1.15 1.15 0 0 1 .117 2.063l-10.521 5.879c-.346.193-.768.194-1.115.003l-14.123-7.802a1.15 1.15 0 0 1-.544-.671l-4.06-13.352a1.15 1.15 0 0 1 .341-1.198c.339-.298.821-.369 1.231-.183l5.688 2.582a1.15 1.15 0 0 1 1.553-.723l4.975 2.143a1.15 1.15 0 0 1 .694 1.055v.584l2.536 1.175a1.15 1.15 0 0 1 .645.826l1.803 9.421 3.224-12.043-14.728-6.055-.671 1.343-2.054-1.028 1.148-2.298zm11.307 23.026L30.57 38.305l-2.668-1.236a1.15 1.15 0 0 1-.666-1.043v-.562l-2.718-1.171a1.15 1.15 0 0 1-1.583.747l-4.95-2.247 3.185 10.476 11.572 6.393zm3.4-.139l6.087-3.401-4.656-1.946-1.431 5.347z"/></g></svg>
